X:1
T:8 Lieder und Gesänge, Op.59
T:Dämmrung senkte sich von oben
T:8 Lieder und Gesänge, Op.59
T:1. Dämmrung senkte sich von oben
T:Johannes Brahms
T:Johann Wolfgang von Goethe
T:OpenScore (CC0)
T:OpenScore (CC0)
T:OpenScore (CC0)
T:OpenScore (CC0)
C:Johannes Brahms
Z:Johann Wolfgang von Goethe
Z:OpenScore (CC0)
%%score ( 1 2 ) { ( 3 4 ) | ( 5 6 ) }
L:1/8
Q:1/4=40
M:3/8
K:Bb
V:1 treble nm="Voice"
V:2 treble 
V:3 bass nm="Piano"
V:4 bass 
V:5 bass 
V:6 bass 
V:1
"^T""^Langsam." z3 | z3 | z3 | z3 | G2 G | ^F2 F | (GB) c | d2 A | B2 B | (BF) G | A2 A | D2 z | %12
w: ||||Dämm- rung|senk- te|sich * von|o- ben,|schon ist|al- * le|Nä- he|fern,|
 B2 c | _A2 F | E2 F | D2 B, | (B_A) G | F2 G | (_A2 G- | G) ^F2 | G2 z | z3 | z3 | z3 | G2 G | %25
w: doch zu-|erst em-|por- ge-|ho- ben|hol- * den|Lichts der|A\-- *|* bend\-|stern.||||Al- les|
 ^F2 F | (GB) c | d2 A | B2 B | (BF) G | A2 A | D2 z | G2 _A | F2 D | C2 D | =B,2 G, | (GF) E | %37
w: schwankt ins|Un- * ge-|wis- se,|Ne- bel|schlei- * chen|in die|Höh,|schwarz- ver-|tief- te|Fin- ster-|nis- se|wi- * der-|
 D2 G | (B2 A- | A) ^F2 | G2 z | z3 | z3 | z3 | z3 | E2 E | G3/2 G/ G/ G/ | B2 B | (Bc) B | %49
w: spie- gelnd|ruht _|_ der|See.|||||Nun am|öst- li- chem Be-|rei- che|ahn _ ich|
 _A3/2 B/ c- | c d2 | e2 z | z3 | (F>B) (c/_d/) | (c>_A) (G/F/) | (G>c) (=d/e/) | (d>B) (=A/G/) | %57
w: Mon- den- glanz|_ und|Glut,||schlan- * ker _|Wei- * den _|Haar- * ge- *|zwei- * ge _|
"^dolce"!>(! (A!>)!d) A | (dB) d | (BG) B | (G=E) z ||[K:G] d2 e | c2 A | G2 A | F2 D | (dc) B | %66
w: scher- * zen|auf _ der|näch- * sten|Flut. _|Durch be-|weg- ter|Schat- ten|Spie- le|zit- * tert|
 A2 A | dc B | A3 | B3 | c2 z | E2 D | ^C2 G | A2 G | F2 c | c2 G | G2 E | D3- | D2 C | B,2 D | %80
w: Lu- nas,|Lu- * nas|Zau-|ber-|schein,|und durchs|Au- ge|schleicht die|Küh- le|sänf- ti-|gend ins|Herz|_ hin-|ein, durchs|
 F2 E | z F G | B2 A | c2 G | G2 z | G2 _E | _E2 C | (D2 =E | F{GF}E) F | G3- | G2 z | z3 | z3 | %93
w: Au- ge|schleicht die|Küh- le|sänf- ti-|gend,|sänf- ti-|gend ins||* * hin-|||||
 !fermata!z3 |] %94
w: |
V:2
 x3 | x3 | x3 | x3 | x3 | x3 | x3 | x3 | x3 | x3 | x3 | x3 | x3 | x3 | x3 | x3 | x3 | x3 | x3 | %19
w: |||||||||||||||||||
 x3 | x3 | x3 | x3 | x3 | x3 | x3 | x3 | x3 | x3 | x3 | x3 | x3 | x3 | x3 | x3 | x3 | x3 | x3 | %38
w: |||||||||||||||||||
 x3 | x3 | x3 | x3 | x3 | x3 | x3 | x3 | x3 | x3 | x3 | x3 | x3 | x3 | x3 | x3 | x3 | x3 | x3 | %57
w: |||||||||||||||||||
 x3 | x3 | x3 | x3 ||[K:G] x3 | x3 | x3 | x3 | x3 | x3 | x3 | x3 | x3 | x3 | x3 | x3 | x3 | x3 | %75
w: ||||||||||||||||||
 x3 | x3 | x3 | x3 | x3 | x3 | x3 | x3 | x3 | x3 | x3 | x3 | B,3- | B,2 A, | G,3- | G,2 x | x3 | %92
w: ||||||||||||Herz||ein'.|_||
 x3 | x3 |] %94
w: ||
V:3
 B,2 z | A,2 z | ([A,=C]B,) z | A,2 z | A,2 z | ([^F,D][F,C]) z | ([G,B,]G,) z | %7
[K:bass] (^F,[F,A,]) z | [D,B,-][G,B,] z |!>(! ([=F,B,]!>)![D,D]) z | ([=E,A,D][E,A,^C]) z | %11
 ([D,A,D][D,A,]) z |[K:treble]"_dolce" ([_AB]/[AB][AB][AB]/- | [AB]/[_AB][AB][AB]/) | %14
!<(! z/!>(! ([C_Ac][CAc][CAc]/-!<)!!>)! | [CAc]/[B,_AB][B,AB][B,AB]/) | %16
 z/ ([B,GB][_A,F_A][G,EG]/- | [G,EG]/[F,EF][F,_DF][G,DG]/- | [G,DG]/[_A,C_A][A,CE][G,CE]/- | %19
 [G,CE]/[G,=A,D][^F,A,D][A,D]/) |[K:bass] (G,/A,/B,/D/!p!E/B,/ | A,/B,/C/^C/D/=C/ | %22
 B,/A,/G,/F,/=E,/_E,/ | D,/^F,/A,/C/B,/A,/ | B,/A,/G,) z | (C/B,/A,) z | (D/C/B,/A,/G,/G/) | %27
 ([A,^F]D) z |[K:treble]!<(! (B,/!<)!C/^C/D/E/F/ | _G/_A/B/F/D/B,/) | (D/A,/^C/A,/z/A,/) | x3 | %32
 [=FG]/[FG][FG][FG]/- |!<(! [FG]/!<)![FG][FG][FG]/- | [FG]/[_A,F_A][A,FA][A,FA]/- | %35
 [A,FA]/[G,FG][G,FG][G,FG]/- | [G,FG]/[G,EG][G,DFG][G,CEG]/- | [G,CEG]/[G,CDG][G,B,DG][B,DG]/- | %38
 [B,DG]/[DG][CEG][CEA]/- | [CEA]/[CE][A,D][A,C]/ |[K:bass] (B,2 z) | (A,2 z) | ([A,=C][G,B,]) z | %43
 _A,2 z |[K:treble] x3 | [GB]/([GB][GB][GB]/- | [GB]/[Be][Be][Be]/-) | ([Be]/[Fe][Fe][Fe]/- | %48
 [Fe]/[Fd][Fd][Fd]/-) |!<(! ([Fd]/!<)![_Ac][Ac][Ac_a]/- | [Aca]/[_Ac_a][Ada][Ada]/-) | %51
!>(! ([_Ad_a]/[Geg][GBe][GB]/- | [GB]/[GB][EG][B,E]/)!>)! | z/ [B,EF][B,_DF][B,DF]/- | %54
 [B,DF]/[B,CF][_A,CF][A,CF]/- | [A,CF]/[G,FG][CFG][CEG]/- | [CEG]/[CDG][B,DG][B,DG]/ | z/ AA/d/A/ | %58
"_dim." z/ BB/d/B/ | z/ [=EG][EG]/B/[EG]/ | z/ [C=E][CE]/G/[CE]/ ||[K:G]"_dolce" (d/d[=cd][cd]/- | %62
!<(! [cd]/[cd][cd][cd]/)!<)! |!>(! ([Ece]/[Ece]!>)![Ece][Ece]/- | [Ece]/[Dcd][Dcd][Dcd]/-) | %65
 [Dcd]/[DBd][CAc][B,GB]/- | [B,GB]/[A,DGA][A,DEA][A,DFA]/ | z/ [DBd][CAc][B,GB]/ | %68
 z/!<(! [A,GA][A,EA][A,=FA]/-!<)! | [A,FA]/[B,=FAB][B,EGB][B,DFB]/ | z/ c2 x/ | %71
 z/!<(! ([G,CE]!<)![G,CE][G,B,D]/) | z/ ([G,_B,^C][G,B,C][G,CG]/) | %73
 z/!<(! ([=CDA]!<)![CDA][CDG]/) | z/ ([C_EF][CEF][CEFc]/) | z/ [C=EGc][CEGc][CEG]/ | %76
 z/ [G,CG][G,CG][G,CE]/ | z/ [G,B,D][G,B,D][G,_B,E]/- | [G,B,E]/[A,DF][G,DG][F,C]/ | %79
 z/ [G,B,][G,B,^C][G,B,D]/ | z/"_cresc." [G,_B,F][G,B,F][G,B,E]/ | z/ [=C_EF][CEF][CEG]/ | %82
 z/ [C_EB][CEB][CEA]/ | z/ ([C=Ec][CEc][CEG]/- | [CEG]/[G,CG][G,CG][G,CE]/) | %85
 z/ ([G,CG][G,CG][G,C_E]/- | [G,CE]/[G,C_E][G,CE][G,C]/) |[K:bass] z/ ([G,B,][G,B,][E,G,]/ | %88
 z/!>(! [D,F,B,]!>)![D,F,B,][D,F,A,]/) | z/ [D,G,][D,G,][D,G,]/- | [D,G,]/[D,B,][D,B,][D,B,]/- | %91
!>(! [D,B,]/!>)![G,C][G,C][G,C]/- | [G,C]/[^F,A,C_E][F,A,CE][F,A,CE]/ | %93
"^rr." !arpeggio!!fermata![D,G,B,DG]3 |] %94
V:4
 ([D,D][E,D]) x | ([^C,^C][D,D]) x | D,G, x | (G,^F,) x | ([G,B,][G,C]) x | x3 | x3 |[K:bass] x3 | %8
 x3 | x3 | x3 | x3 |[K:treble] x3 | x3 | x3 | x3 | x3 | x3 | x3 | x3 |[K:bass] x3 | x3 | x3 | x3 | %24
 x3 | x3 | x3 | x3 |[K:treble] x3 | B,3 | x3 | x3 | x3 | x3 | x3 | x3 | x3 | x3 | x3 | x3 | %40
[K:bass] [D,D][E,E] x | [^C,^C][D,D] x | D,2 x | ((G,F,)) x |[K:treble] x3 | x3 | x3 | x3 | x3 | %49
 x3 | x3 | x3 | x3 | x3 | x3 | x3 | x3 | z/ D/^F/D/-D/D/ | z/ D/G/D/-D/D/ | x3 | x3 ||[K:G] x3 | %62
 x3 | x3 | x3 | x3 | x3 | x3 | x3 | x3 | x/ [C=F][CE][CD]/ | x3 | x3 | x3 | x3 | x3 | x3 | x3 | %78
 x3 | x3 | x3 | x3 | x3 | x3 | x3 | x3 | x3 |[K:bass] x3 | x3 | x3 | x3 | x3 | x3 | x3 |] %94
V:5
!p! [G,,,G,,]3 | [^F,,,^F,,]3 | ([G,,,G,,][B,,,B,,][C,,C,]) | [D,,D,]3 | ([E,,B,,][E,,C,]) z | %5
 ([D,,D,][D,,A,,]) z | ([E,,G,,][E,,B,,]) z | ([D,,D,][D,,A,,]) z | (G,,[E,,E,]) z | %9
 ([D,,D,][B,,,B,,]) z | [A,,,A,,]A,,, z | [D,,,D,,]D,, z | [_A,B,][A,B,][A,B,] | %13
 [_A,B,][A,B,][A,B,] | [_A,C] (F,,_A,, |B,,B,,,) z | (G,F,)E, | (E,_D,) z | z ([_A,,,_A,,][C,,C,] | %19
 [=D,,=D,]2 D,,) | [G,,,G,,]3 | [^F,,,^F,,]3 | ([G,,,G,,][B,,,B,,][C,,C,]) | D,3 | %24
 (G,,/A,,/B,,/D,/E,/C,/ | A,,/B,,/C,/^C,/D,/=C,/ | B,,/A,,/G,,/F,,/=E,,/_E,,/ | %27
 D,,/A,,/D,/=E,/^F,/D,/) | ([G,,G,][_G,,_G,][F,,F,] |!>(! [E,,E,]!>)![D,,D,][B,,,B,,]) | %30
 [A,,,A,,]2 A,, | (D,,/A,,/D,/^F,/[I:staff -1]A,/D/) |[I:staff +1] [=F,G,][F,G,][F,G,] | %33
 [F,G,][F,G,][F,G,] |!>(! F, (D,,F,,!>)! |G,,G,,,) z | (E,E,,F,, | G,,B,,) z | %38
 z!>(! ([C,,C,]!>)![A,,,A,,] | [D,,D,]2 D,,) |!p! [G,,,G,,]3 | [^F,,,^F,,]3 | %42
 ([G,,,G,,][B,,,B,,][C,,C,]) | (D,,>B,,D,/F,/ | _A,/B,/[I:staff -1]D/F/_A/B/-) | %45
[I:staff +1][K:treble] (E3 | G3 | B3-) | B3 |[K:bass] F2 F,- | F, B,,2 | (E,,3 | G,,3 | %53
!p! (B,,2) _D,) | F,3 | (C,2 E,) | G,3 | (D,3 | G,,2 B,, |!>(! ^C,2 =E,!>)! | G,2 B,) || %61
[K:G] D[=CD][CD] | [CD][CD][CD] | [CE] (A,,C, |D,D,,) z | (B,A,G, | G,E,F,) | %67
 ([B,,B,][C,A,][^C,G,] | [D,G,][D,E,][D,=F,] | [G,,=F,A,][G,,E,G,][G,,D,F,]) | %70
 ([G,,C,=F,][G,,C,E,][G,,C,D,]) | ([C,,C,]2 [D,,D,]) |!>(! [E,,_B,,E,]3!>)! | D,3 | [A,,_E,A,]3 | %75
 [G,,C,=E,G,]3 |!>(! [C,,G,,E,]3!>)! |!<(! (D,2!<)! ^C, | =C,=B,,A,,) | %79
!<(! ([E,,G,,E,]2!<)! [D,,D,]) |!>(! [^C,,^C,]3!>)! |!<(! ([A,,_E,A,]2!<)! [G,,G,]) | %82
!>(! [F,,C,_E,F,]3!>)! |!>(! [G,,C,=E,G,]3!>)! | [C,,G,,E,]3 |!p! [C,_E,]3 | [C,,C,]2 [_E,,_E,] | %87
!<(! (D,2!<)! ^C, | =C,3) |!p! (C,2 B,, | A,,2 G,,) | [E,,G,,]3 | [C,,G,,]3 | %93
 !fermata![G,,,G,,]3 |] %94
V:6
 x3 | x3 | x3 | x3 | x3 | x3 | x3 | x3 | x3 | x3 | x3 | x3 | z (F,E, |D,F,) z | z x2 | x3 | %16
 z (G,,=A,, | B,,E,,) z | x3 | x3 | x3 | x3 | x3 | (D,,=E,,^F,,) | x3 | x3 | x3 | x3 | x3 | x3 | %30
 E,/ x/ E,/ x3/2 | x3 | z (D,C, |=B,,D,) z | z x2 | x3 | x3 | x3 | x3 | x3 | x3 | x3 | x3 | x3 | %44
 x3 |[K:treble] x3 | x3 | B,3 | D3 |[K:bass] x3 | x3 | x3 | x3 | B,,3 | (F,,2 _A,,) | C,3 | %56
 (G,,2 B,,) | D,,2 ^F,, | x3 | x3 | x3 ||[K:G] z (A,G, |F,A,) z | z x2 | x3 | z (B,,^C, | %66
 D,D,=C,) | x3 | x3 | x3 | x3 | G,,3 | x3 | [F,,F,]2 [G,,G,] | x3 | x3 | x3 | [D,,G,,]3 | %78
 D,,2 ^D,, | x3 | x3 | x3 | x3 | x3 | x3 | x3 | x3 | D,,3 | D,,3 | G,,3 | =F,,3 | x3 | x3 | x3 |] %94

